img/logo.svg

<svg xmlns="http://www.w3.org/2000/svg" width="859.53336" height="200.97857" viewBox="0 0 859.53336 200.97857"><title>logo</title><rect x="0.59436" y="0.27552" width="858.93442" height="14.55" style="fill:#e9e0d2"/><rect x="0.59433" y="149.28907" width="168.75682" height="14.55" style="fill:#e9e0d2"/><g style="opacity:0.38"><path d="M195.97164,150.66976v49.602h12.4005V163.07025h12.40049v37.20148h12.40049v-49.602Z" style="fill:#e9e0d2"/><path d="M275.744,150.71933l-36.02342-.04957v49.602h35.75057V184.87034h-10.962v4.01775h-6.23749L275.744,170.99418ZM264.38515,164.2359l-12.06566,11.97884v-14.025h12.06566Z" style="fill:#e9e0d2"/><path d="M362.07627,150.71933l-36.02342-.04957v49.602h35.75057V184.87034h-10.962v4.01775h-6.23749l17.47233-17.89391ZM350.71745,164.2359l-12.06573,11.97884v-14.025h12.06573Z" style="fill:#e9e0d2"/><path d="M282.1799,150.73174v49.478h12.42532v-6.01428l24.99936-24.99936V150.73174Zm25.01177,13.78935-12.57412,11.65649V163.10741h12.57412Z" style="fill:#e9e0d2"/><polygon points="368.62 150.672 405.822 150.672 405.822 163.072 381.021 163.072 381.021 179.193 388.461 186.633 405.822 186.633 405.822 200.274 383.501 200.274 368.62 185.393 368.62 150.672" style="fill:#e9e0d2"/><polygon points="411.783 150.672 448.984 150.672 448.984 164.312 437.824 164.312 437.824 200.274 424.183 200.274 424.183 164.312 411.783 164.312 411.783 150.672" style="fill:#e9e0d2"/><path d="M454.832,151.43858v49.478h12.42531V194.9023l24.99929-24.99937V151.43858Zm25.01177,13.78934-12.574,11.6565V163.81425h12.574Z" style="fill:#e9e0d2"/><path d="M498.1097,151.37659v49.602h37.20148v-49.602Zm24.801,37.20148H510.51019v-24.801h12.40049Z" style="fill:#e9e0d2"/><path d="M563.3162,138.03541V142.519h-6.89186v-4.48359h-6.89185v9.69787h20.67556v-9.69787Z" style="fill:#e9e0d2"/><polygon points="585.052 151.401 596.212 151.401 596.212 178.086 609.853 164.108 609.853 151.401 621.013 151.401 621.013 170.462 614.813 178.086 621.013 178.086 621.013 200.958 609.853 200.958 609.853 181.898 596.212 194.604 596.212 200.958 585.052 200.958 585.052 151.401" style="fill:#e9e0d2"/><polygon points="541.536 151.426 541.536 200.941 553.701 200.941 553.701 182.266 565.878 170.089 565.878 200.941 578.204 200.941 578.204 151.426 565.035 151.426 564.576 151.885 553.54 162.921 553.54 151.426 541.536 151.426" style="fill:#e9e0d2"/><path d="M628.82334,150.69458V200.2469h11.148v-6.36145l12.4005-11.34641V200.2469h11.18527V150.69458Zm23.57335,13.80168-12.36325,11.59451v-13.9134h12.36325Z" style="fill:#e9e0d2"/></g><path d="M255.05014,39.41368H191.64069v84.54593h23.25013V113.39137l19.02284-21.13649v31.70473h21.13648V83.80029H244.4819l10.56824-10.56824Zm-42.273,44.38661V60.55016h23.25013Z" style="fill:#e9e0d2"/><path d="M559.98624,39.41368H496.57678v84.54593h23.25014V113.39137l19.02283-21.13649v31.70473h21.13649V83.80029H549.418l10.56825-10.56824Zm-42.273,44.38661V60.55016H540.9634Z" style="fill:#e9e0d2"/><polygon points="420.343 39.414 483.752 39.414 483.752 62.664 464.729 62.664 464.729 123.96 441.479 123.96 441.479 62.664 420.343 62.664 420.343 39.414" style="fill:#e9e0d2"/><polygon points="684.054 39.491 703.077 39.491 703.077 84.974 726.327 61.15 726.327 39.491 745.35 39.491 745.35 71.979 734.782 84.974 745.35 84.974 745.35 123.96 726.327 123.96 726.327 91.472 703.077 113.13 703.077 123.96 684.054 123.96 684.054 39.491" style="fill:#e9e0d2"/><path d="M572.8161,39.41368v84.54593h63.40945V39.41368Zm42.273,63.40945H593.95258v-42.273h21.13648Z" style="fill:#e9e0d2"/><path d="M38.99307,39.625v84.33462h21.1788V113.70847L102.783,71.09724V39.625ZM81.62532,63.12888,60.193,82.99709V60.71929h21.4323Z" style="fill:#e9e0d2"/><rect x="649.09016" y="39.49096" width="21.03303" height="84.46865" style="fill:#e9e0d2"/><path d="M177.81748,39.70962,116.416,39.625v84.33462h60.93652V97.77148H158.66783v6.82717H148.03624l29.78124-30.41543Zm-19.361,22.9965L137.89063,83.06057v-23.842h20.56589Z" style="fill:#e9e0d2"/><path d="M330.275,39.49817l-61.40146-.08449v84.54593H329.81V97.70813H311.1253v6.8482H300.49358L330.275,74.0564ZM310.914,62.537,290.3481,82.95478V59.04942H310.914Z" style="fill:#e9e0d2"/><polygon points="344.111 39.414 407.52 39.414 407.52 64.777 386.384 64.777 386.384 60.55 365.247 60.55 365.247 64.777 407.52 104.937 407.52 123.96 344.111 123.96 344.111 98.596 365.247 98.596 365.247 102.823 375.816 102.823 344.111 71.118 344.111 39.414" style="fill:#e9e0d2"/><path d="M761.3324,39.49817v84.46144h19.00168v-10.843l21.13648-19.3398v30.18283h19.06515V39.49817Zm40.18048,23.52492L780.43974,82.78578V59.07058h21.07314Z" style="fill:#e9e0d2"/><rect x="-74.45978" y="74.73531" width="163.46956" height="14.55" transform="translate(89.28531 74.73531) rotate(90)" style="fill:#e9e0d2"/><rect x="690.17763" y="149.53173" width="168.75682" height="14.55" transform="translate(1549.11207 313.61347) rotate(-180)" style="fill:#e9e0d2"/><rect x="770.519" y="74.97797" width="163.46956" height="14.55" transform="translate(934.50675 -770.00081) rotate(90)" style="fill:#e9e0d2"/></svg>

<svg xmlns="http://www.w3.org/2000/svg" viewBox="0 0 859.53 200.98"><defs><style>.cls-1{fill:#e9e0d2;}.cls-2{opacity:0.38;}</style></defs><g id="Layer_2" data-name="Layer 2"><g id="Layer_1_copy" data-name="Layer 1 copy"><rect class="cls-1" x="0.59" y="0.28" width="858.93" height="14.55"/><rect class="cls-1" x="0.59" y="149.29" width="168.76" height="14.55"/><g class="cls-2"><path class="cls-1" d="M196,150.67v49.6h12.4v-37.2h12.4v37.2h12.4v-49.6Z"/><path class="cls-1" d="M275.74,150.72l-36-.05v49.6h35.75v-15.4h-11v4h-6.24L275.74,171Zm-11.35,13.52-12.07,12v-14h12.07Z"/><path class="cls-1" d="M362.08,150.72l-36-.05v49.6H361.8v-15.4h-11v4H344.6L362.08,171Zm-11.36,13.52-12.07,12v-14h12.07Z"/><path class="cls-1" d="M282.18,150.73v49.48h12.43v-6l25-25V150.73Zm25,13.79-12.57,11.66V163.11h12.57Z"/><polygon class="cls-1" points="368.62 150.67 405.82 150.67 405.82 163.07 381.02 163.07 381.02 179.19 388.46 186.63 405.82 186.63 405.82 200.27 383.5 200.27 368.62 185.39 368.62 150.67"/><polygon class="cls-1" points="411.78 150.67 448.98 150.67 448.98 164.31 437.82 164.31 437.82 200.27 424.18 200.27 424.18 164.31 411.78 164.31 411.78 150.67"/><path class="cls-1" d="M454.83,151.44v49.48h12.43v-6l25-25V151.44Zm25,13.79-12.57,11.65V163.81h12.57Z"/><path class="cls-1" d="M498.11,151.38V201h37.2v-49.6Zm24.8,37.2h-12.4v-24.8h12.4Z"/><path class="cls-1" d="M563.32,138v4.48h-6.9V138h-6.89v9.69h20.68V138Z"/><polygon class="cls-1" points="585.05 151.4 596.21 151.4 596.21 178.09 609.85 164.11 609.85 151.4 621.01 151.4 621.01 170.46 614.81 178.09 621.01 178.09 621.01 200.96 609.85 200.96 609.85 181.9 596.21 194.6 596.21 200.96 585.05 200.96 585.05 151.4"/><polygon class="cls-1" points="578.2 151.43 578.2 200.94 566.04 200.94 566.04 182.27 553.86 170.09 553.86 200.94 541.54 200.94 541.54 151.43 554.71 151.43 555.16 151.88 566.2 162.92 566.2 151.43 578.2 151.43"/><path class="cls-1" d="M628.82,150.69v49.56H640v-6.36l12.4-11.35v17.71h11.19V150.69ZM652.4,164.5,640,176.09V162.18H652.4Z"/></g><path class="cls-1" d="M255.05,39.41H191.64V124h23.25V113.39l19-21.14V124h21.14V83.8H244.48l10.57-10.57ZM212.78,83.8V60.55H236Z"/><path class="cls-1" d="M560,39.41H496.58V124h23.25V113.39l19-21.14V124H560V83.8H549.42L560,73.23ZM517.71,83.8V60.55H541Z"/><polygon class="cls-1" points="420.34 39.41 483.75 39.41 483.75 62.66 464.73 62.66 464.73 123.96 441.48 123.96 441.48 62.66 420.34 62.66 420.34 39.41"/><polygon class="cls-1" points="684.05 39.49 703.08 39.49 703.08 84.97 726.33 61.15 726.33 39.49 745.35 39.49 745.35 71.98 734.78 84.97 745.35 84.97 745.35 123.96 726.33 123.96 726.33 91.47 703.08 113.13 703.08 123.96 684.05 123.96 684.05 39.49"/><path class="cls-1" d="M572.82,39.41V124h63.41V39.41Zm42.27,63.41H594V60.55h21.14Z"/><path class="cls-1" d="M39,39.62V124H60.17V113.71L102.78,71.1V39.62ZM81.63,63.13,60.19,83V60.72H81.63Z"/><rect class="cls-1" x="649.09" y="39.49" width="21.03" height="84.47"/><path class="cls-1" d="M177.82,39.71l-61.4-.09V124h60.93V97.77H158.67v6.83H148l29.78-30.42Zm-19.36,23L137.89,83.06V59.22h20.57Z"/><path class="cls-1" d="M330.27,39.5l-61.4-.09V124h60.94V97.71H311.13v6.85H300.49l29.78-30.5Zm-19.36,23L290.35,83V59.05h20.56Z"/><polygon class="cls-1" points="344.11 39.41 407.52 39.41 407.52 64.78 386.38 64.78 386.38 60.55 365.25 60.55 365.25 64.78 407.52 104.94 407.52 123.96 344.11 123.96 344.11 98.6 365.25 98.6 365.25 102.82 375.82 102.82 344.11 71.12 344.11 39.41"/><path class="cls-1" d="M761.33,39.5V124h19V113.12l21.14-19.34V124h19.07V39.5ZM801.51,63,780.44,82.79V59.07h21.07Z"/><rect class="cls-1" x="-74.46" y="74.74" width="163.47" height="14.55" transform="translate(89.29 74.74) rotate(90)"/><rect class="cls-1" x="690.18" y="149.53" width="168.76" height="14.55" transform="translate(1549.11 313.61) rotate(-180)"/><rect class="cls-1" x="770.52" y="74.98" width="163.47" height="14.55" transform="translate(934.51 -770) rotate(90)"/></g></g></svg>
